X: 1
T: Polska 2 etter Jon Andersson i Dm
O: Norway
N: Norsk Finnskogspolska met kort 3'er
N: Several recordings are clearly in 7/8, not the 3/4 of the PDF file.
Z: 2009 John Chambers <jc:trillian.mit.edu>
F: http://www.youtube.com/watch?v=V5iN_oW5oeM&feature=related
F: http://www.sor.studorg.liu.se/Strangar_Ror/Latar_files/jonandersson.jpg
M: 7/8
L: 1/8
K: Dm
af \
| "Dm"d2d "A7"^c>A cd | e3 "Gm"f>a gb \
| "A7"a2f e>d (3^c=Bc |1,3 "Dm"d2A FD :|2,4 "Dm"d3 d2 :|
|: a2 \
| "Dm"fga (3fga (3fga | "Gm"b3 b2 g2 \
| "C"efg (3efg (3efg | "A7"a3 a2 af |
| "Dm"d2d "A7"^c>A cd | e3 "Gm"f>a gb \
| "A7"a2f e>d (3^c=Bc | "Dm"d3 d2 :|
